src/assets/icons/swap-success.svg

<?xml version="1.0" encoding="UTF-8"?>
<svg width="24px" height="24px" viewBox="0 0 24 24" version="1.1" xmlns="http://www.w3.org/2000/svg" xmlns:xlink="http://www.w3.org/1999/xlink">
    <title>帮助中心图标备份 42</title>
    <g id="扩展程序" stroke="none" stroke-width="1" fill="none" fill-rule="evenodd">
        <g id="兑换成功" transform="translate(-176.000000, -138.000000)" fill="#3BC164">
            <g id="编组" transform="translate(176.000000, 138.000000)">
                <path d="M22.4350288,5.56497116 C22.8255531,5.95549545 22.8255531,6.58866043 22.4350288,6.97918472 L9.70710678,19.7071068 L9.70710678,19.7071068 C9.55690513,19.8573084 9.37080989,19.9497402 9.17643151,19.9844021 L9.05903139,19.9982669 L9.05903139,19.9982669 L8.94096861,19.9982669 C8.70506395,19.9844021 8.4731352,19.8873488 8.29289322,19.7071068 L1.22182541,12.636039 C0.831301115,12.2455147 0.831301115,11.6123497 1.22182541,11.2218254 C1.6123497,10.8313011 2.24551468,10.8313011 2.63603897,11.2218254 L8.99993219,17.5850779 L21.0208153,5.56497116 C21.4113396,5.17444687 22.0445046,5.17444687 22.4350288,5.56497116 Z" id="形状结合"></path>
            </g>
        </g>
    </g>
</svg>

<svg width="24" height="24" xmlns="http://www.w3.org/2000/svg"><path d="M22.435 5.565a1 1 0 0 1 0 1.414L9.707 19.707a.995.995 0 0 1-.53.277l-.118.014h-.118a.996.996 0 0 1-.648-.29l-7.071-7.072a1 1 0 0 1 1.414-1.414L9 17.585l12.02-12.02a1 1 0 0 1 1.415 0z" fill="#3bc164" fill-rule="evenodd"/></svg>
